!!!COM:	Ravel
!!!OTL:	287_Rav-35/53-54/[29]1-[30]1
**kern	**kern	**kern	**kern	**kern
*part4	*part3	*part2	*part2	*part1
*staff5	*staff4	*staff3	*staff2	*staff1
*I"Violoncello	*I"Viola	*I"Harp	*	*I"Bassoon
*I'Vc.	*I'Vla.	*I'Hp.	*	*I'Bsn.
*clefF4	*clefC3	*clefF4	*clefG2	*clefC4
*k[]	*k[]	*k[]	*k[]	*k[]
*C:	*C:	*C:	*C:	*C:
*M2/4	*M2/4	*M2/4	*M2/4	*M2/4
=1	=	=	=	=
12CC' 12GG	12E'	2r	2r	8r
12r	12r	.	.	.
.	.	.	.	([4.g^
12r	12r	.	.	.
12GG' 12E	12D#X'	.	.	.
12r	12r	.	.	.
12r	12r	.	.	.
=2	=2	=2	=2	=2
12CC' 12GG	12E'	2r	2r	4.g]
12r	12r	.	.	.
12r	12r	.	.	.
12GG' 12E	12D#X'	.	.	.
12r	12r	.	.	.
.	.	.	.	[8b-X
12r	12r	.	.	.
=3	=3	=3	=3	=3
12CC' 12GG	12E'	2r	2r	4b-]
12r	12r	.	.	.
12r	12r	.	.	.
12GG' 12E	12D#X'	.	.	[4a
12r	12r	.	.	.
12r	12r	.	.	.
=4	=4	=4	=4	=4
12CC' 12GG	12E'	2r	2r	8a]
12r	12r	.	.	.
.	.	.	.	4.g)
12r	12r	.	.	.
12GG' 12E	12D#X'	.	.	.
12r	12r	.	.	.
12r	12r	.	.	.
=5	=5	=5	=5	=5
12CC' 12GG	12E'	2r	2r	(4.b-X
12r	12r	.	.	.
12r	12r	.	.	.
12GG' 12E	12D#X'	.	.	.
12r	12r	.	.	.
.	.	.	.	[8a
12r	12r	.	.	.
=6	=6	=6	=6	=6
12CC' 12GG	12E'	2r	2r	4a]
12r	12r	.	.	.
12r	12r	.	.	.
12GG' 12E	12D#X'	.	.	[4g
12r	12r	.	.	.
12r	12r	.	.	.
=7	=7	=7	=7	=7
12CC' 12GG	12E'	2r	2r	8g])
12r	12r	.	.	.
.	.	.	.	([4.b-X^
12r	12r	.	.	.
12GG' 12E	12D#X'	.	.	.
12r	12r	.	.	.
12r	12r	.	.	.
=8	=8	=8	=8	=8
!!linebreak:original
12CC' 12GG	12E'	2r	2r	4.b-~]
12r	12r	.	.	.
12r	12r	.	.	.
12GG' 12E	12D#X'	.	.	.
12r	12r	.	.	.
.	.	.	.	[8a
12r	12r	.	.	.
=9	=9	=9	=9	=9
12CC' 12GG	12E'	2r	2r	2a_
12r	12r	.	.	.
12r	12r	.	.	.
12GG' 12E	12D#X'	.	.	.
12r	12r	.	.	.
12r	12r	.	.	.
=10	=10	=10	=10	=10
12CC' 12GG	12E'	2r	2r	8a]
12r	12r	.	.	.
.	.	.	.	[4.g
12r	12r	.	.	.
12GG' 12E	12D#X'	.	.	.
12r	12r	.	.	.
12r	12r	.	.	.
=11	=11	=11	=11	=11
12CC' 12GG	12E'	2r	2r	4.g])
12r	12r	.	.	.
12r	12r	.	.	.
12GG' 12E	12D#X'	.	.	.
12r	12r	.	.	.
.	.	.	.	([8e-X
12r	12r	.	.	.
=12	=12	=12	=12	=12
12CC' 12GG	12E'	2r	2r	2e-_
12r	12r	.	.	.
12r	12r	.	.	.
12GG' 12E	12D#X'	.	.	.
12r	12r	.	.	.
12r	12r	.	.	.
=13	=13	=13	=13	=13
!!pagebreak:original
12CC' 12GG	12E'	2r	2r	8e-]
12r	12r	.	.	.
.	.	.	.	4.d)
12r	12r	.	.	.
12GG' 12E	12D#X'	.	.	.
12r	12r	.	.	.
12r	12r	.	.	.
=14	=14	=14	=14	=14
12CC' 12GG	12E'	2r	2r	(4.G
12r	12r	.	.	.
12r	12r	.	.	.
12GG' 12E	12D#X'	.	.	.
12r	12r	.	.	.
.	.	.	.	[8B-X
12r	12r	.	.	.
=15	=15	=15	=15	=15
12CC' 12GG	12E'	2r	2r	4B-]
12r	12r	.	.	.
12r	12r	.	.	.
12GG' 12E	12D#X'	.	.	[4c
12r	12r	.	.	.
12r	12r	.	.	.
=16	=16	=16	=16	=16
12CC' 12GG	12E'	2r	(32GLLL	8c]
.	.	.	32A#X	.
.	.	.	32B-X	.
12r	12r	.	.	.
.	.	.	32cJJ	.
.	.	.	32dLL	[4.d)
.	.	.	32f#XJJJ	.
12r	12r	.	.	.
.	.	.	16r	.
12GG' 12E	12D#X'	.	4r	.
12r	12r	.	.	.
12r	12r	.	.	.
==	==	==	==	==
*-	*-	*-	*-	*-
!!!system-decoration: s1{(s2,s3)}[(s4,s5)]
!!!ONB: Converted from MusicXML on 2020/01/17
